resources/svg/coin-fill.svg

<svg fill="currentColor" viewBox="0 0 24 24" xmlns="http://www.w3.org/2000/svg"><path d="M23.0049 12.0029V14.0029C23.0049 17.3166 18.08 20.0029 12.0049 20.0029C6.03824 20.0029 1.18114 17.4117 1.00957 14.1798L1.00488 14.0029V12.0029C1.00488 15.3166 5.92975 18.0029 12.0049 18.0029C18.08 18.0029 23.0049 15.3166 23.0049 12.0029ZM12.0049 4.00293C18.08 4.00293 23.0049 6.68922 23.0049 10.0029C23.0049 13.3166 18.08 16.0029 12.0049 16.0029C5.92975 16.0029 1.00488 13.3166 1.00488 10.0029C1.00488 6.68922 5.92975 4.00293 12.0049 4.00293Z"/></svg>

<svg xmlns="http://www.w3.org/2000/svg" viewBox="0 0 24 24" fill="currentColor">
    <g>
        <path fill="none" d="M0 0h24v24H0z"/>
        <path d="M23 12v2c0 3.314-4.925 6-11 6-5.967 0-10.824-2.591-10.995-5.823L1 14v-2c0 3.314 4.925 6 11 6s11-2.686 11-6zM12 4c6.075 0 11 2.686 11 6s-4.925 6-11 6-11-2.686-11-6 4.925-6 11-6z"/>
    </g>
</svg>
